img/arrow-29.svg

<svg fill="none" height="14" viewBox="0 0 16 14" width="16" xmlns="http://www.w3.org/2000/svg"><path d="m15.3721 7.59866c.3306-.33063.3306-.86669 0-1.19732l-5.38791-5.3879c-.33063-.330628-.86668-.330628-1.19731 0-.33063.33063-.33063.86668 0 1.19731l4.78922 4.78925-4.78922 4.7892c-.33063.3307-.33063.8667 0 1.1974.33063.3306.86668.3306 1.19731 0zm-14.1447-1.44529c-.46758 0-.846627.37905-.846627.84663s.379047.84663.846627.84663zm13.546 0h-13.546v1.69326h13.546z" fill="#0080ff"/></svg>

<svg width="16" height="14" viewBox="0 0 16 14" fill="none" xmlns="http://www.w3.org/2000/svg">
<path d="M15.3721 7.59866C15.7027 7.26803 15.7027 6.73197 15.3721 6.40134L9.98419 1.01344C9.65356 0.682812 9.11751 0.682812 8.78688 1.01344C8.45625 1.34407 8.45625 1.88012 8.78688 2.21075L13.5761 7L8.78688 11.7892C8.45625 12.1199 8.45625 12.6559 8.78688 12.9866C9.11751 13.3172 9.65356 13.3172 9.98419 12.9866L15.3721 7.59866ZM1.2274 6.15337C0.75982 6.15337 0.380773 6.53242 0.380773 7C0.380773 7.46758 0.75982 7.84663 1.2274 7.84663V6.15337ZM14.7734 6.15337L1.2274 6.15337V7.84663L14.7734 7.84663V6.15337Z" fill="#0080FF"/>
</svg>
